src/assets/images/icons/community/twitter.svg

<?xml version="1.0" encoding="UTF-8" standalone="no"?>
<svg width="32px" height="26px" viewBox="0 0 32 26" version="1.1" xmlns="http://www.w3.org/2000/svg" xmlns:xlink="http://www.w3.org/1999/xlink">
    <!-- Generator: Sketch 3.7 (28169) - http://www.bohemiancoding.com/sketch -->
    <title>Shape</title>
    <desc>Created with Sketch.</desc>
    <defs></defs>
    <g id="icons" stroke="none" stroke-width="1" fill="none" fill-rule="evenodd">
        <g id="General-icons-1" transform="translate(-646.000000, -456.000000)" fill="#A9A6AF">
            <g id="twitter-(1)" transform="translate(646.000000, 456.000000)">
                <path d="M32,3.07804294 C30.8016698,3.60851937 29.5307097,3.95678098 28.2293137,4.11126597 C29.582841,3.2980774 30.6240159,2.01297818 31.1139806,0.479472722 C29.8253274,1.24402961 28.4154232,1.78268856 26.945198,2.07217113 C25.7043648,0.747296655 23.9691331,-0.00314066268 22.1537519,9.88030033e-06 C18.5296467,9.88030033e-06 15.5882255,2.93802101 15.5882255,6.56226206 C15.5882255,7.07724067 15.6462047,7.579156 15.7597132,8.05841473 C10.3027318,7.78429017 5.46637235,5.17265668 2.22770597,1.20142252 C1.6622051,2.16953331 1.33964503,3.2980774 1.33964503,4.50112294 C1.33964503,6.77698956 2.49820729,8.78607971 4.25942608,9.96320283 C3.21667128,9.93124923 2.19678797,9.64972807 1.28534061,9.14225794 L1.28534061,9.22594451 C1.28534061,12.4048097 3.54856902,15.05747 6.55041915,15.6616463 C5.58362923,15.9233692 4.56995537,15.9617587 3.58613298,15.7739087 C4.42193102,18.3816641 6.84725607,20.2786958 9.71885726,20.3338065 C7.47236931,22.0912246 4.64200681,23.1424096 1.56543708,23.1424096 C1.04229538,23.1418112 0.519620702,23.1111435 0,23.0505585 C2.90508211,24.9120745 6.35667896,26 10.063874,26 C22.1394613,26 28.741735,15.9976172 28.741735,7.32360578 C28.741735,7.03988788 28.741735,6.75616998 28.7213198,6.47449321 C30.00601,5.54519073 31.1154447,4.39518909 31.9979585,3.07804294 L32,3.07804294 Z" id="Shape"></path>
            </g>
        </g>
    </g>
</svg>

<svg width="32" height="26" viewBox="0 0 32 26" xmlns="http://www.w3.org/2000/svg"><title>Shape</title><path d="M32 3.078c-1.198.53-2.47.879-3.77 1.033A6.589 6.589 0 0 0 31.113.48a13.148 13.148 0 0 1-4.169 1.593A6.55 6.55 0 0 0 22.154 0a6.565 6.565 0 0 0-6.394 8.058A18.64 18.64 0 0 1 2.228 1.201a6.523 6.523 0 0 0-.888 3.3 6.56 6.56 0 0 0 2.92 5.462 6.525 6.525 0 0 1-2.975-.82v.083a6.57 6.57 0 0 0 5.265 6.436c-.966.261-1.98.3-2.964.112a6.577 6.577 0 0 0 6.133 4.56 13.19 13.19 0 0 1-8.154 2.808c-.523 0-1.045-.03-1.565-.091A18.593 18.593 0 0 0 10.064 26c12.075 0 18.678-10.002 18.678-18.676 0-.284 0-.568-.02-.85a13.392 13.392 0 0 0 3.276-3.396H32z" fill="#1DA1F2" fill-rule="evenodd"/></svg>
